source/images/icon-manage.svg

<svg height="42" viewBox="0 0 65 42" width="65" xmlns="http://www.w3.org/2000/svg"><path d="m78.8405071 61.6529286c0 .5738571-.416 1.0390714-.9220714 1.0390714h-23.0220714c-.5097857 0-.9257857-.4652143-.9257857-1.0390714v-8.6654286c0-.5738571.416-1.0437143.9257857-1.0437143h23.0220714c.5060714 0 .9220714.4698572.9220714 1.0437143zm0 10.8317857c0 .5738571-.2182142 1.0390714-.4837857 1.0390714h-24.3267143c-.2646428 0-.4828571-.4652143-.4828571-1.0390714v-2.8590714c0-.5738572.2182143-1.0437143.4828571-1.0437143h24.3267143c.2655715 0 .4837857.4698571.4837857 1.0437143zm0 7.7210714c0 .5738572-.2182142 1.0390714-.4837857 1.0390714h-24.3267143c-.2646428 0-.4828571-.4652142-.4828571-1.0390714v-2.8581428c0-.5738572.2182143-1.0446429.4828571-1.0446429h24.3267143c.2655715 0 .4837857.4707857.4837857 1.0446429zm-31.8992142-.5803571c-1.0678572.3630714-2.171.6314285-3.2806429.8524285-2.1431429.4252858-4.3531429.7521429-6.5529286.767-2.1997857-.0139285-4.4097857-.3417142-6.5529285-.767-1.1105715-.221-2.2127858-.4893571-3.2806429-.8524285-.8524286-.2897143-1.3557143-.4234286-1.3213571-1.3826429.0455-1.2377857.1996428-2.4811428.429-3.7003571.2785714-1.4764286.6323571-3.6409286 2.0029285-4.6029286.7920715-.5562143 1.8190715-.7391429 2.7253572-1.0743571.442-.1625.8375714-.325 1.209-.5097858 1.2526428 1.2925715 2.886 1.9685715 4.7886428 1.9685715 1.9026429 0 3.536-.676 4.7886429-1.9685715.3714286.1847858.767.3472858 1.209.5097858.9072143.3352142 1.9332857.5181428 2.7253571 1.0743571 1.3705715.962 1.7243572 3.1265 2.0029286 4.6029286.2293571 1.2192143.3835 2.4625714.429 3.7003571.0343571.9592143-.468 1.0938572-1.3213571 1.3826429zm-9.8335715-26.4438572c4.4989286 0 6.474 2.9575 5.9957857 6.8881429-.3881428 3.1905714-1.872 7.0738571-5.9957857 7.0738571-4.1237857.0009286-5.6067143-3.8842143-5.9957857-7.0738571-.4782143-3.9306429 1.4977857-6.8881429 5.9957857-6.8881429zm46.5335-7.1815714h-62.2774285c-.7521429 0-1.3640715.4122857-1.3640715.9137143v39.7874286c0 .5042142.6119286.9127857 1.3640715.9127857h62.2774285c.7521429 0 1.3585-.4085715 1.3585-.9127857v-39.7874286c0-.5051429-.6063571-.9137143-1.3585-.9137143z" fill="#0093c9" fill-rule="evenodd" transform="translate(-20 -46)"/></svg>

<?xml version="1.0" encoding="UTF-8"?>
<svg width="65px" height="42px" viewBox="0 0 65 42" version="1.1" xmlns="http://www.w3.org/2000/svg" xmlns:xlink="http://www.w3.org/1999/xlink">
    <!-- Generator: Sketch 41.1 (35376) - https://www.sketchapp.com -->
    <title>icon-manage</title>
    <desc>Created with Sketch.</desc>
    <defs></defs>
    <g id="Updated-HOME" stroke="none" stroke-width="1" fill="none" fill-rule="evenodd">
        <g id="home-updated" transform="translate(-140.000000, -812.000000)" fill="#0093C9">
            <g id="Manage" transform="translate(120.000000, 766.000000)">
                <path d="M78.8405071,61.6529286 C78.8405071,62.2267857 78.4245071,62.692 77.9184357,62.692 L54.8963643,62.692 C54.3865786,62.692 53.9705786,62.2267857 53.9705786,61.6529286 L53.9705786,52.9875 C53.9705786,52.4136429 54.3865786,51.9437857 54.8963643,51.9437857 L77.9184357,51.9437857 C78.4245071,51.9437857 78.8405071,52.4136429 78.8405071,52.9875 L78.8405071,61.6529286 Z M78.8405071,72.4847143 C78.8405071,73.0585714 78.6222929,73.5237857 78.3567214,73.5237857 L54.0300071,73.5237857 C53.7653643,73.5237857 53.54715,73.0585714 53.54715,72.4847143 L53.54715,69.6256429 C53.54715,69.0517857 53.7653643,68.5819286 54.0300071,68.5819286 L78.3567214,68.5819286 C78.6222929,68.5819286 78.8405071,69.0517857 78.8405071,69.6256429 L78.8405071,72.4847143 Z M78.8405071,80.2057857 C78.8405071,80.7796429 78.6222929,81.2448571 78.3567214,81.2448571 L54.0300071,81.2448571 C53.7653643,81.2448571 53.54715,80.7796429 53.54715,80.2057857 L53.54715,77.3476429 C53.54715,76.7737857 53.7653643,76.303 54.0300071,76.303 L78.3567214,76.303 C78.6222929,76.303 78.8405071,76.7737857 78.8405071,77.3476429 L78.8405071,80.2057857 Z M46.9412929,79.6254286 C45.8734357,79.9885 44.7702929,80.2568571 43.66065,80.4778571 C41.5175071,80.9031429 39.3075071,81.23 37.1077214,81.2448571 C34.9079357,81.2309286 32.6979357,80.9031429 30.5547929,80.4778571 C29.4442214,80.2568571 28.3420071,79.9885 27.27415,79.6254286 C26.4217214,79.3357143 25.9184357,79.202 25.9527929,78.2427857 C25.9982929,77.005 26.1524357,75.7616429 26.3817929,74.5424286 C26.6603643,73.066 27.01415,70.9015 28.3847214,69.9395 C29.1767929,69.3832857 30.2037929,69.2003571 31.1100786,68.8651429 C31.5520786,68.7026429 31.94765,68.5401429 32.3190786,68.3553571 C33.5717214,69.6479286 35.2050786,70.3239286 37.1077214,70.3239286 C39.0103643,70.3239286 40.6437214,69.6479286 41.8963643,68.3553571 C42.2677929,68.5401429 42.6633643,68.7026429 43.1053643,68.8651429 C44.0125786,69.2003571 45.03865,69.3832857 45.8307214,69.9395 C47.2012929,70.9015 47.5550786,73.066 47.83365,74.5424286 C48.0630071,75.7616429 48.21715,77.005 48.26265,78.2427857 C48.2970071,79.202 47.79465,79.3366429 46.9412929,79.6254286 L46.9412929,79.6254286 Z M37.1077214,53.1815714 C41.60665,53.1815714 43.5817214,56.1390714 43.1035071,60.0697143 C42.7153643,63.2602857 41.2315071,67.1435714 37.1077214,67.1435714 C32.9839357,67.1445 31.5010071,63.2593571 31.1119357,60.0697143 C30.6337214,56.1390714 32.6097214,53.1815714 37.1077214,53.1815714 L37.1077214,53.1815714 Z M83.6412214,46 L21.3637929,46 C20.61165,46 19.9997214,46.4122857 19.9997214,46.9137143 L19.9997214,86.7011429 C19.9997214,87.2053571 20.61165,87.6139286 21.3637929,87.6139286 L83.6412214,87.6139286 C84.3933643,87.6139286 84.9997214,87.2053571 84.9997214,86.7011429 L84.9997214,46.9137143 C84.9997214,46.4085714 84.3933643,46 83.6412214,46 L83.6412214,46 Z" id="icon-manage"></path>
            </g>
        </g>
    </g>
</svg>
